X: 1
P: The Bonfire
C: Tein'-aigheirair gach beann dhiubh
C: Simon Fraser Collection
C: Arr. T. Traub 11-3-02
R: Strathspey
K: Bb
M: 4/4
L: 1/8
f|"Gm"d<Gd>c d<GB<g|"F"f>d c<f A>F F<f|"Gm"d<Gd>c d<GB<g|"Gm"b>g"D"a>^f "Gm"g2 g :|
f|"Gm"d<g g2 d>g b<g|"F"f>d c<f A>FFf|"Gm"d<g g2 d<gg>a|"Gm"b>g"D"a>^f "Gm"g2 ga|
"Gm"b>a gd c<f A>F F<f|"Gm"d<gd>c d<GB<g|"Gm"b>g"D"a>^f "Gm"g2 g |]
